X:0
T:Star Spangled Banner
C:John Stafford Smith
M:3/4
L:1/4
Q:1/4=100
K:Ab

E/2>C/2 | A, C E | A2 c/2>B/2 | A C =D |
E2 E/2 E/2 | c>B A | G2 F/2 G/2 | A A E |
C A, E/2>C/2 | A, C E | A2 c/2>B/2 | A C =D |
E2 E/2 E/2 | c>B A | G2 F/2 G/2 | A A E |
C A, c/2 c/2 | c d e | e2 d/2 c/2 | B c d |
d2 d | c>B A | G2 F/2 G/2 | A C =D | E2 E |
A A A/2 G/2 | F F F | B d/2 c/2 B/2 A/2 | 
A G2 E/2 E/2 | A>B c/2 d/2 | e2 A/2 B/2 |
c>_d B | A2

